Origami/16x16/apps/xcas.svg

<svg width="16" height="16" version="1" xmlns="http://www.w3.org/2000/svg">
 <rect transform="matrix(0,-1,-1,0,0,0)" x="-15" y="-15" width="15" height="15" rx="7.5" ry="7.5" style="fill:#936ff6"/>
 <path d="m7.4917922 1.9920655a0.50005 0.50005 0 0 0 -0.4921875 0.5078125v1l-1.1992188-0.9003906a0.50078135 0.50078135 0 1 0 -0.6015624 0.8007812l1.8007812 1.3496094v1.8828125l-1.6289062-0.9414063-0.2675782-2.234375a0.50078135 0.50078135 0 0 0 -0.9941406 0.1210938l0.1796875 1.4882812-0.8652344-0.5a0.50005 0.50005 0 0 0 -0.6855469 0.171875 0.50005 0.50005 0 0 0 0.1855469 0.6953126l0.8652344 0.5-1.3789063 0.5878906a0.50099181 0.50099181 0 1 0 0.3925782 0.921875l2.0683594-0.8847656 1.6289062 0.9414062-1.6289062 0.9394531-2.0683594-0.8847656a0.50099181 0.50099181 0 1 0 -0.3925782 0.921875l1.3789063 0.5878906-0.8691406 0.5019529a0.50050385 0.50050385 0 1 0 0.5 0.867189l0.8691406-0.5019532-0.1796875 1.4882812a0.50078121 0.50078121 0 1 0 0.9941406 0.121094l0.2675782-2.2343764 1.6289062-0.9414062v1.8808606l-1.8007812 1.349609a0.50078127 0.50078127 0 1 0 0.6015624 0.800781l1.1992188-0.90039v1.003906a0.50005 0.50005 0 1 0 1 0v-1.003906l1.1992188 0.90039a0.50078136 0.50078136 0 1 0 0.6015625 -0.800781l-1.8007813-1.349609v-1.8808606l1.6308595 0.9414062 0.2695318 2.2343764a0.50078128 0.50078128 0 1 0 0.99414 -0.121094l-0.179687-1.4882812 0.86914 0.5019532a0.50050385 0.50050385 0 0 0 0.5 -0.867189l-0.86914-0.5019529 1.378906-0.5878906a0.50099177 0.50099177 0 1 0 -0.392578 -0.921875l-2.070313 0.8847656-1.6289062-0.9394531 1.6289062-0.9414062 2.070313 0.8847656a0.50099177 0.50099177 0 1 0 0.392578 -0.921875l-1.380859-0.5878906 0.867187-0.5a0.50005 0.50005 0 0 0 0.185547 -0.6953126 0.50005 0.50005 0 0 0 -0.685547 -0.171875l-0.867187 0.5 0.18164-1.4882812a0.50078135 0.50078135 0 0 0 -0.99414 -0.1210938l-0.2695318 2.234375-1.6308595 0.9414063v-1.8828125l1.8007813-1.3496094a0.50078144 0.50078144 0 1 0 -0.6015625 -0.8007812l-1.1992188 0.9003906v-1a0.50005 0.50005 0 0 0 -0.5078125 -0.5078125z" style="fill-rule:evenodd;fill:#ffffff"/>
</svg>

<svg xmlns="http://www.w3.org/2000/svg" width="16" height="16" version="1">
 <rect width="15" height="15" x="-15" y="-15" rx="7.5" ry="7.5" transform="matrix(0,-1,-1,0,0,0)" style="fill:#936ff6"/>
 <path style="fill:#ffffff;fill-rule:evenodd" d="M 7.4917922,1.9920655 A 0.50005,0.50005 0 0 0 6.9996047,2.499878 l 0,1 L 5.8003859,2.5994874 A 0.50078135,0.50078135 0 1 0 5.1988235,3.4002686 l 1.8007812,1.3496094 0,1.8828125 L 5.3706985,5.6912842 5.1031203,3.4569092 A 0.50078135,0.50078135 0 0 0 4.1089797,3.578003 l 0.1796875,1.4882812 -0.8652344,-0.5 a 0.50005,0.50005 0 0 0 -0.6855469,0.171875 0.50005,0.50005 0 0 0 0.1855469,0.6953126 l 0.8652344,0.5 -1.3789063,0.5878906 a 0.50099181,0.50099181 0 1 0 0.3925782,0.921875 L 4.8706985,6.5584718 6.4996047,7.499878 4.8706985,8.4393311 2.8023391,7.5545655 A 0.50099181,0.50099181 0 1 0 2.4097609,8.4764405 L 3.7886672,9.0643311 2.9195266,9.566284 a 0.50050385,0.50050385 0 1 0 0.5,0.867189 L 4.2886672,9.9315198 4.1089797,11.419801 a 0.50078121,0.50078121 0 1 0 0.9941406,0.121094 l 0.2675782,-2.2343764 1.6289062,-0.9414062 0,1.8808606 -1.8007812,1.349609 a 0.50078127,0.50078127 0 1 0 0.6015624,0.800781 l 1.1992188,-0.90039 0,1.003906 a 0.50005,0.50005 0 1 0 1,0 l 0,-1.003906 1.1992188,0.90039 A 0.50078136,0.50078136 0 1 0 9.800386,11.595582 l -1.8007813,-1.349609 0,-1.8808606 1.6308595,0.9414062 0.2695318,2.2343764 a 0.50078128,0.50078128 0 1 0 0.99414,-0.121094 l -0.179687,-1.4882812 0.86914,0.5019532 a 0.50050385,0.50050385 0 0 0 0.5,-0.867189 L 11.214449,9.0643311 12.593355,8.4764405 A 0.50099177,0.50099177 0 1 0 12.200777,7.5545655 L 10.130464,8.4393311 8.5015578,7.499878 10.130464,6.5584718 12.200777,7.4432374 a 0.50099177,0.50099177 0 1 0 0.392578,-0.921875 l -1.380859,-0.5878906 0.867187,-0.5 A 0.50005,0.50005 0 0 0 12.26523,4.7381592 0.50005,0.50005 0 0 0 11.579683,4.5662842 l -0.867187,0.5 0.18164,-1.4882812 A 0.50078135,0.50078135 0 0 0 9.899996,3.4569092 l -0.2695318,2.234375 -1.6308595,0.9414063 0,-1.8828125 L 9.800386,3.4002686 A 0.50078144,0.50078144 0 1 0 9.1988235,2.5994874 l -1.1992188,0.9003906 0,-1 A 0.50005,0.50005 0 0 0 7.4917922,1.9920655 Z"/>
</svg>
